X:1
T:LORD, You Have Searched Me
T:Tune: Henry K. Oliver, 1832 Text under copyright; for copyrighted material see Psalter Hymnal 184
T:LM FEDERAL STREET www.hymnary.org/text/lord_you_have_searched_me
T:LORD, You Have Searched Me
T:This tune is in the public domain. You may freely use this score for personal and congregational worship. If you reproduce the score, please credit Hymnary.org as the source. 
T:This tune is in the public domain. You may freely use this score for personal and congregational worship. If you reproduce the score, please credit Hymnary.org as the source. 
Z:This tune is in the public domain. You may freely use this score for personal and congregational worship. If you reproduce the score, please credit Hymnary.org as the source.
%%score ( 1 2 ) ( 3 4 )
L:1/8
M:2/2
K:Eb
V:1 treble nm="SOPRANO ALTO" snm="S. A."
V:2 treble 
V:3 bass nm="TENOR BASS" snm="T. B."
V:4 bass 
V:1
 G4 G2 G2 | A4 (G2 B2) | B4 A4 | G8 | A4 A2 A2 | G6 G2 | =A4 A4 | B8 | B4 B2 A2 | G4 E4 | %10
 (D2 E2) (F2 G2) | A8 |1 G4 c2 c2 | B4 G4 | E4 F4 | E8 |] %16
V:2
 E4 E2 E2 | E4 E4 | F4 D4 | E8 | D4 F2 D2 | E6 E2 | E4 E4 | D8 | E4 F2 D2 | E4 B,4 | B,4 (D2 E2) | %11
 F8 |1 E4 E2 E2 | E4 E4 | E4 D4 | E8 |] %16
V:3
 B,4 B,2 B,2 | C4 (B,2 G,2) | F,4 B,4 | B,8 | B,4 B,2 B,2 | B,6 B,2 | C4 C4 | B,8 | G,4 F,2 B,2 | %9
 B,4 B,4 | B,4 B,4 | B,8 |1 B,4 A,2 A,2 | G,4 B,4 | G,4 A,4 | G,8 |] %16
V:4
 E,4 E,2 E,2 | E,4 E,4 | D,4 B,,4 | E,8 | B,,4 D,2 B,,2 | E,6 E,2 | C,4 F,4 | B,,8 | E,4 D,2 B,,2 | %9
 E,4 G,4 | (A,2 G,2) (F,2 E,2) | D,8 |1 E,4 A,,2 C,2 | E,4 E,4 | B,,4 B,,4 | E,8 |] %16

